X:1
T: Coquette Hornpipe
C:
R:Reel
Q: 232
K:G
M:4/4
L:1/8
|:dc|BG Bd BG Bd|gf ge dB GB|ec dB cB AG|F2 A2 A2 dc|
BG Bd BG Bd|gf ge dB GB|ec dB cB AG|D2 G2 A2 dc|
Bg dg Bg dg|Bg ba gf ed|ca ea ca ea|ce ag fe dc|
Bg dB Ae cA|Gd BG AF D2|ec dB cB AG|D2 G2 G2:|
